Suru++-Ubuntu/apps/scalable/facebook.svg

<svg width="256" height="256" version="1.1" viewBox="0 0 67.73 67.73" xmlns="http://www.w3.org/2000/svg" xmlns:xlink="http://www.w3.org/1999/xlink">
 <defs>
  <linearGradient id="linearGradient1108" x1="296" x2="296" y1="-212" y2="202.4" gradientUnits="userSpaceOnUse">
   <stop style="stop-color:#ffffff" offset="0"/>
   <stop style="stop-color:#ffffff;stop-opacity:.09803922" offset=".135"/>
   <stop style="stop-color:#ffffff;stop-opacity:0" offset="1"/>
  </linearGradient>
  <clipPath id="clipPath1082-3-3675">
   <path d="M 361.9375,-212 C 507.2348,-212 528,-191.28677 528,-46.125 V 70.125 C 528,215.28618 507.2348,236 361.9375,236 H 214.0625 C 68.7652,236 48,215.28618 48,70.125 V -46.125 C 48,-191.28677 68.7652,-212 214.0625,-212 Z" style="fill:#8c59d9"/>
  </clipPath>
  <filter id="filter910" x="-.02" y="-.03" width="1.046" height="1.05" style="color-interpolation-filters:sRGB">
   <feGaussianBlur stdDeviation="2.32"/>
  </filter>
  <filter id="filter4569" x="-.01" y="-.01" width="1.023" height="1.025" style="color-interpolation-filters:sRGB">
   <feGaussianBlur stdDeviation="1.16"/>
  </filter>
 </defs>
 <g transform="translate(0,-229.26666)">
  <g transform="matrix(.12974173 0 0 .12974173 3.8344818 227.85345)" style="enable-background:new">
   <path d="m301.90773 44.402363c148.15296 0 169.32628 21.120327 169.32628 169.1351v118.53478c0 148.01417-21.17332 169.1351-169.32628 169.1351h-150.78132c-148.15297 0-169.32628-21.12093-169.32628-169.1351v-118.53478c0-148.01477 21.17331-169.1351 169.32628-169.1351z" style="fill:none;opacity:.2;stroke-linecap:round;stroke-linejoin:round;stroke-width:8.1572313;stroke:#000000"/>
   <path transform="matrix(2.0393079,0,0,2.0393079,-29.55473,37.126102)" d="m162.53675 3.5680001c72.64865 0 83.03125 10.356615 83.03125 82.937505v58.125005c0 72.58059-10.3826 82.9375-83.03125 82.9375h-73.937496c-72.648654 0-83.031254-10.35691-83.031254-82.9375v-58.125005c0-72.58089 10.3826-82.937505 83.031254-82.937505z" style="filter:url(#filter4569);opacity:.1"/>
   <path transform="matrix(2.0393079,0,0,2.0393079,-29.55473,37.126102)" d="m162.53675 5.5680001c72.64865 0 83.03125 10.356615 83.03125 82.937505v58.125005c0 72.58059-10.3826 82.9375-83.03125 82.9375h-73.937496c-72.648654 0-83.031254-10.35691-83.031254-82.9375v-58.125005c0-72.58089 10.3826-82.937505 83.031254-82.937505z" style="filter:url(#filter910);opacity:.2"/>
   <path d="m301.90773 43.795222c148.15296 0 169.32628 21.120327 169.32628 169.1351v118.53478c0 148.01417-21.17332 169.1351-169.32628 169.1351h-150.78132c-148.15297 0-169.32628-21.12093-169.32628-169.1351v-118.53478c0-148.01477 21.17331-169.1351 169.32628-169.1351z" style="fill:#5470ac"/>
   <path d="m343.15724 500.6002v-186.04546h62.44639l9.35045-72.50519h-71.79684v-46.28997c0-20.99186 5.82914-35.29728 35.93105-35.29728l38.39355-0.0155v-64.849138c-6.64002-0.8863-29.43085-2.86045-55.94617-2.86045-55.35524 0-93.25293 33.789208-93.25293 95.840328v53.4706h-62.60669v72.50521h62.60669v186.04547z" style="fill:#ffffff"/>
   <path transform="matrix(2.0393079,0,0,2.0393079,-29.55473,10.892486)" d="m5.9628906 173.58789c0.0865608 2.56489 0.0535646 5.63818 0.1933594 8.01172 0.2128955 3.61469 0.4922655 7.01124 0.8496094 10.20312 0.3573438 3.19189 0.7931866 6.17826 1.3203125 8.97266s1.1449458 5.39612 1.8671871 7.81836c0.722242 2.42224 1.547544 4.66482 2.490235 6.74023 0.942691 2.07542 2.002932 3.98438 3.191406 5.73829 1.188474 1.7539 2.505252 3.35282 3.964844 4.81054 1.459591 1.45773 3.062317 2.77407 4.818359 3.96094s3.666314 2.24421 5.744141 3.18555c2.077826 0.94134 4.323102 1.76714 6.748047 2.48828 2.424944 0.72113 5.028775 1.33897 7.826171 1.86523 2.797397 0.52626 5.787241 0.9597 8.982422 1.31641 3.195182 0.3567 6.596543 0.63518 10.214844 0.84766 7.236602 0.42495 15.3447 0.58789 24.425781 0.58789h73.937501c9.08108 0 17.18918-0.16294 24.42578-0.58789 3.6183-0.21248 7.01771-0.49096 10.21289-0.84766 3.19518-0.35671 6.18503-0.79015 8.98242-1.31641 2.7974-0.52626 5.40318-1.1441 7.82813-1.86523 2.42494-0.72114 4.67022-1.54694 6.74805-2.48828 2.07782-0.94134 3.98809-1.99868 5.74414-3.18555 1.75604-1.18687 3.35681-2.50321 4.8164-3.96094 1.45959-1.45772 2.77832-3.05664 3.9668-4.81054 1.18847-1.75391 2.24676-3.66287 3.18945-5.73829 0.94269-2.07541 1.76995-4.31799 2.49219-6.74023s1.34006-5.02396 1.86719-7.81836c0.52712-2.7944 0.96297-5.78077 1.32031-8.97266 0.35734-3.19188 0.63671-6.58843 0.84961-10.20312 0.13979-2.37354 0.1068-5.44683 0.19336-8.01172h-239.21094z" style="fill:#ffffff;opacity:.25"/>
   <path transform="matrix(1.0196539,0,0,1.0196539,-67.14326,259.75844)" d="M 361.9375,-212 C 507.2348,-212 528,-191.28677 528,-46.125 V 70.125 C 528,215.28618 507.2348,236 361.9375,236 H 214.0625 C 68.7652,236 48,215.28618 48,70.125 V -46.125 C 48,-191.28677 68.7652,-212 214.0625,-212 Z" clip-path="url(#clipPath1082-3-3675)" style="fill:none;opacity:.5;stroke-linecap:round;stroke-linejoin:round;stroke-width:8;stroke:url(#linearGradient1108)"/>
  </g>
 </g>
</svg>

<svg xmlns="http://www.w3.org/2000/svg" xmlns:xlink="http://www.w3.org/1999/xlink" width="256" height="256" version="1.1" viewBox="0 0 67.73 67.73">
 <defs>
  <linearGradient id="linearGradient1108" x1="296" x2="296" y1="-212" y2="202.4" gradientUnits="userSpaceOnUse" xlink:href="#linearGradient1013"/>
  <linearGradient id="linearGradient1013">
   <stop offset="0" style="stop-color:#ffffff"/>
   <stop style="stop-color:#ffffff;stop-opacity:0.09803922" offset=".135"/>
   <stop style="stop-color:#ffffff;stop-opacity:0" offset="1"/>
  </linearGradient>
  <clipPath id="clipPath1082-3-3675" clipPathUnits="userSpaceOnUse">
   <path d="M 361.9375,-212 C 507.2348,-212 528,-191.28677 528,-46.125 V 70.125 C 528,215.28618 507.2348,236 361.9375,236 H 214.0625 C 68.7652,236 48,215.28618 48,70.125 V -46.125 C 48,-191.28677 68.7652,-212 214.0625,-212 Z" style="fill:#8c59d9"/>
  </clipPath>
  <filter style="color-interpolation-filters:sRGB" id="filter910" width="1.046" height="1.05" x="-.02" y="-.03">
   <feGaussianBlur stdDeviation="2.32"/>
  </filter>
  <filter style="color-interpolation-filters:sRGB" id="filter4569" width="1.023" height="1.025" x="-.01" y="-.01">
   <feGaussianBlur stdDeviation="1.16"/>
  </filter>
 </defs>
 <g transform="translate(0,-229.26666)">
  <g style="enable-background:new" transform="matrix(0.12974173,0,0,0.12974173,3.8344818,227.85345)">
   <path d="m 301.90773,44.402363 c 148.15296,0 169.32628,21.120327 169.32628,169.135097 v 118.53478 c 0,148.01417 -21.17332,169.1351 -169.32628,169.1351 H 151.12641 c -148.1529701,0 -169.32628,-21.12093 -169.32628,-169.1351 V 213.53746 c 0,-148.01477 21.1733099,-169.135097 169.32628,-169.135097 z" style="opacity:0.2;fill:none;stroke:#000000;stroke-width:8.15723133;stroke-linecap:round;stroke-linejoin:round"/>
   <path d="m 162.53675,3.5680001 c 72.64865,0 83.03125,10.3566149 83.03125,82.9375049 v 58.125005 c 0,72.58059 -10.3826,82.9375 -83.03125,82.9375 H 88.599254 C 15.9506,227.56801 5.568,217.2111 5.568,144.63051 V 86.505505 c 0,-72.58089 10.3826,-82.9375049 83.031254,-82.9375049 z" transform="matrix(2.0393079,0,0,2.0393079,-29.55473,37.126102)" style="opacity:0.1;filter:url(#filter4569)"/>
   <path style="opacity:0.2;filter:url(#filter910)" d="m 162.53675,5.5680001 c 72.64865,0 83.03125,10.3566149 83.03125,82.9375049 v 58.125005 c 0,72.58059 -10.3826,82.9375 -83.03125,82.9375 H 88.599254 C 15.9506,229.56801 5.568,219.2111 5.568,146.63051 V 88.505505 c 0,-72.58089 10.3826,-82.9375049 83.031254,-82.9375049 z" transform="matrix(2.0393079,0,0,2.0393079,-29.55473,37.126102)"/>
   <path style="fill:#5470ac" d="m 301.90773,43.795222 c 148.15296,0 169.32628,21.120327 169.32628,169.135098 V 331.4651 c 0,148.01417 -21.17332,169.1351 -169.32628,169.1351 H 151.12641 c -148.1529701,0 -169.32628,-21.12093 -169.32628,-169.1351 V 212.93032 c 0,-148.014771 21.1733099,-169.135098 169.32628,-169.135098 z"/>
   <path style="fill:#ffffff" d="M 343.15724,500.6002 V 314.55474 h 62.44639 l 9.35045,-72.50519 h -71.79684 v -46.28997 c 0,-20.99186 5.82914,-35.29728 35.93105,-35.29728 l 38.39355,-0.0155 V 95.597662 c -6.64002,-0.8863 -29.43085,-2.86045 -55.94617,-2.86045 -55.35524,0 -93.25293,33.789208 -93.25293,95.840328 v 53.4706 h -62.60669 v 72.50521 h 62.60669 v 186.04547 z"/>
   <path style="opacity:0.25;fill:#ffffff" d="M 5.9628906 173.58789 C 6.0494514 176.15278 6.0164552 179.22607 6.15625 181.59961 C 6.3691455 185.2143 6.6485155 188.61085 7.0058594 191.80273 C 7.3632032 194.99462 7.799046 197.98099 8.3261719 200.77539 C 8.8532978 203.56979 9.4711177 206.17151 10.193359 208.59375 C 10.915601 211.01599 11.740903 213.25857 12.683594 215.33398 C 13.626285 217.4094 14.686526 219.31836 15.875 221.07227 C 17.063474 222.82617 18.380252 224.42509 19.839844 225.88281 C 21.299435 227.34054 22.902161 228.65688 24.658203 229.84375 C 26.414245 231.03062 28.324517 232.08796 30.402344 233.0293 C 32.48017 233.97064 34.725446 234.79644 37.150391 235.51758 C 39.575335 236.23871 42.179166 236.85655 44.976562 237.38281 C 47.773959 237.90907 50.763803 238.34251 53.958984 238.69922 C 57.154166 239.05592 60.555527 239.3344 64.173828 239.54688 C 71.41043 239.97183 79.518528 240.13477 88.599609 240.13477 L 162.53711 240.13477 C 171.61819 240.13477 179.72629 239.97183 186.96289 239.54688 C 190.58119 239.3344 193.9806 239.05592 197.17578 238.69922 C 200.37096 238.34251 203.36081 237.90907 206.1582 237.38281 C 208.9556 236.85655 211.56138 236.23871 213.98633 235.51758 C 216.41127 234.79644 218.65655 233.97064 220.73438 233.0293 C 222.8122 232.08796 224.72247 231.03062 226.47852 229.84375 C 228.23456 228.65688 229.83533 227.34054 231.29492 225.88281 C 232.75451 224.42509 234.07324 222.82617 235.26172 221.07227 C 236.45019 219.31836 237.50848 217.4094 238.45117 215.33398 C 239.39386 213.25857 240.22112 211.01599 240.94336 208.59375 C 241.6656 206.17151 242.28342 203.56979 242.81055 200.77539 C 243.33767 197.98099 243.77352 194.99462 244.13086 191.80273 C 244.4882 188.61085 244.76757 185.2143 244.98047 181.59961 C 245.12026 179.22607 245.08727 176.15278 245.17383 173.58789 L 5.9628906 173.58789 z" transform="matrix(2.0393079,0,0,2.0393079,-29.55473,10.892486)"/>
   <path d="M 361.9375,-212 C 507.2348,-212 528,-191.28677 528,-46.125 V 70.125 C 528,215.28618 507.2348,236 361.9375,236 H 214.0625 C 68.7652,236 48,215.28618 48,70.125 V -46.125 C 48,-191.28677 68.7652,-212 214.0625,-212 Z" clip-path="url(#clipPath1082-3-3675)" transform="matrix(1.0196539,0,0,1.0196539,-67.14326,259.75844)" style="opacity:0.5;fill:none;stroke:url(#linearGradient1108);stroke-width:8;stroke-linecap:round;stroke-linejoin:round"/>
  </g>
 </g>
</svg>
